X:363
T:AIR XXVII Scornful Nancy.
B:Joseph Mitchell: "The Highland Fair" (1731)
Z:Jack Campin <http://www.purr.demon.co.uk/jack/jack.html>
M:C|
L:1/8
K:C
  G | G3   A   G2 (FE)|(FE)(DC) A3  c | G3A       (GA)(GE)|(G3A)    c2
(cd)|(ed)(cA) (cA)(GE)|(FE)(DC) A3  c | G3A       (GA)(cE)|(G3A)    c2||
(GA)|c2   e2   e2 (de)|(fe)(dc) A2(GA)| c3      d (ed)(ec)|(f3g/a/) g3
  a |(ga)(gf)  e2 (de)|(fe)(dc) A2 f2 |(e/f/g) G2 (GA)(GE)| G4      c2|]
